dist/svg/0104-relaxation.svg

<svg width="233pt" height="175pt" viewBox="0 0 233 175" xmlns="http://www.w3.org/2000/svg">
  <g fill="#FFF">
    <path d="M0 0h233v175H0V0m160.41 41.47c-3.2 1.88-3.74 6.15-6.62 8.32-2.1.88-4.35 1.68-6.65 1.58-4.62-.43-9.32-.07-13.85.86-3.69 2.42-7.11 5.36-11.38 6.75-8.22 2.88-13.18 10.57-20.73 14.54-3.69-.42-7.2 1.29-9.85 3.73-5.46 4.07-6.3 11.45-6.73 17.74.25 3.06-2.1 5.32-3.13 7.99.11 2.51-.66 5.67 2.03 7.13-.07 1.6-.14 3.19-.19 4.79-3.98-1.3-8.17-2.15-12.37-1.74-4.46.33-8.53 2.42-12.92 3.08-2.9-1.94-4.78-5.26-8.1-6.55-3.3-1.05-6.61 1.1-8.41 3.77-2.05 2.89-5.36 4.59-7.35 7.55-1.96 2.43-3.04 5.8-6.02 7.24-2.27 1.25-4.4 2.74-6.54 4.21-.02 1.28-.06 2.57.07 3.86 2.89 1.11 6.01 2.17 9.14 1.58 6.35-.99 12.69-2.26 19.09-2.76 3.99.67 8 1.16 12.04 1.39 10.34 1.79 20.83.02 31.24.33 3.91-1.28 4.74-6.02 6.48-9.26 1.7-4.16 5.51-7.75 4.77-12.59-.6-2 1.87-2.57 2.92-3.75.64 10.94 8.38 21.6 19.39 23.91 10.52 2.27 21.76 3.03 32.22.06 6.28-.74 12.05-3.71 17.1-7.4 5.2-5.67 7.8-13.23 8.68-20.78.49-10.63-3.82-21.08-10.78-28.99-3.6-2.2-7.12-4.83-11.35-5.61-2.62-.66-5.6-1.23-7.91.55 3.55.98 7.51.65 10.78 2.57 2.31 1.37 4.97 2.19 7.02 3.97 5.81 7.55 10.1 16.75 9.43 26.49-.89 7.62-2.11 16.22-8.38 21.42-3.99 2.03-8.05 4.24-12.5 5.04-5.69.68-11.27 2.68-17.06 1.97-8.55-.55-18.38.97-25.39-5.14-6.01-6.47-9.83-15.4-8.88-24.31-.88-5.67 4.3-9.45 5.52-14.56-4.79 3.65-7.29 9.77-7.48 15.69-.31 1.59 0 4.14-1.97 4.73-7.32 1.93-14.42-1.5-21.37-3.33-.68-2.62-.75-5.32.77-7.66 2.08-3.26 1.49-7.17 1.21-10.81 2.11-4.2 3.94-8.86 8.28-11.28 3.21-2.99 8.44-1.31 10.99-5.19.18 5.16 3.28 9.58 6.25 13.58 1.64 2.47 4.94 1.97 7.51 2.01 3.95-.69 6.99-3.72 10.65-5.19-.78 2.95-2.37 5.88-1.78 9.03.5 4.03.39 8.1.69 12.14.37 3.56 2.99 6.17 4.44 9.27 1.67 3.34-.69 7.39 1.63 10.51 2.3 4.34 6.08 10.02 11.83 8.17.26-.33.78-.99 1.04-1.33 4.35-3.38 4.55-10.13 1.93-14.63-1.54-1.47-3.76-2.28-4.74-4.27-3.82-6.83-2.9-15.06-1.69-22.47 2.98-2.42 6.01-5.39 6.53-9.4.21-4.4 5.24-6.55 5.91-10.8-.11-1.79-.18-3.57-.02-5.35 1.29.25 2.58.51 3.87.79 2.68 2.64 6.41 4.59 10.22 3.29 5.93-4.03 9.04-11.17 9.85-18.09.35-5.28-4.86-7.78-8.71-10-3.45-1.99-7.58-.29-10.67 1.61z"/>
    <path d="M162.9 41.43c3.15-.51 6.81-.87 9.47 1.27 2.28 1.74 5.24 3.6 5.38 6.78.27 2.27.07 4.56-.02 6.83-3.82 3.28-5.03 9.28-10.33 10.79-4.3-1.73-8.19-4.4-12.79-5.33-.05 2.36.01 4.76-.47 7.09-.86 2.86-3.38 4.7-5 7.09-1.48 2.04-1.34 4.69-2.2 6.97-.74 2-2.28 3.53-3.6 5.16l-.68-2.92-1.05 1.21c.21 3.99-.33 7.93-.9 11.86-.02 4.66 1.39 9.21 2.52 13.69.48 2.58 3.06 3.67 4.83 5.25.53 1.39 1.09 2.77 1.68 4.14-.63 3.14-1.12 6.31-2.05 9.39-2.82.66-5.29-.56-7.57-2.09-.8-1.72-1.71-3.38-2.49-5.1-1.46-3.31-.4-7.13-1.85-10.43-1.17-2.3-3.26-4.05-4.03-6.57-1.46-4.03-1.14-8.38-1.7-12.56-.17-1.8-1.3-3.59-.65-5.4 1.57-4.23 2.61-8.65 4.53-12.75 1.85-4.6 5.91-8.41 5.7-13.7-2.27 2.13-3.15 5.17-4.57 7.85-2.92-.28-5.99-.8-8.85.12-3.37 1.52-6.62 3.41-9.26 6.02 2.82-1.22 5.44-2.83 8.21-4.15 2.41-1.65 5.16.2 7.72.4-1.38 2.88-1.94 6.19-3.57 8.89-3.66 1.94-7.22 4.08-10.48 6.67-2.79-1.22-5.53-2.66-7.17-5.36-1.19-2.61-3.77-4.59-3.98-7.61-.1-1.49.06-2.99.14-4.49 4.63-2.81 8.24-7.08 13.35-9.13 4.48-1.73 8.15-4.93 12.47-6.95 4.2-.97 8.58-2.16 12.9-1.21 4.41-.02 9.37-1.63 11.75-5.62 1.26-2.19 2.17-4.96 4.61-6.1m-17.99 19.34c2.4 1.38 4.85 2.71 7.44 3.72-.63-3.69-4.31-4.49-7.44-3.72zM85.02 109.46c5.72 2.19 11.55 4.44 17.81 4.06.1 6.36-4.08 11.3-6.19 16.98-.72 1.59-1.55 3.21-2.92 4.34-6.54.24-13.2-.79-19.65.78-5.1 1.2-10.02-1.39-15.13-1.06-4.9-.57-9.77-.98-14.7-.88-7.21-.13-14.24 2.76-21.47 1.33 3.74-2.99 7.6-5.91 10.82-9.49 2.41-3.38 4.88-6.88 8.32-9.31 4.76.92 8.18 4.87 11.21 8.38 5.68 1.32 11.32-.87 16.86-1.9 5.06-.73 9.95 1.31 14.96 1.61-.41-.65-1.23-1.94-1.64-2.59.46-.49 1.37-1.47 1.82-1.95.36-3.43-.04-6.87-.1-10.3m1.9 9.07c-.2 3.61-1.82 6.81-3.29 10.03 3.22-2.24 5.3-6.29 3.29-10.03z"/>
    <path d="M42.63 114.18c1.79-.98 3.56-2.02 5.48-2.73 3.53.67 5.35 4.05 7.29 6.7 4.94-.12 9.69-1.51 14.44-2.72 4.89-1.28 9.67.77 14.49 1.35-.63 1.69-1.31 3.37-2 5.04-4.9-1.23-10.13-2.29-15.12-.97-4.32 1.5-8.91 1.99-13.44 2.41-3.01-3.76-6.67-7.13-11.14-9.08z"/>
  </g>
  <g fill="#333">
    <path d="M160.41 41.47c3.09-1.9 7.22-3.6 10.67-1.61 3.85 2.22 9.06 4.72 8.71 10-.81 6.92-3.92 14.06-9.85 18.09-3.81 1.3-7.54-.65-10.22-3.29-1.29-.28-2.58-.54-3.87-.79-.16 1.78-.09 3.56.02 5.35-.67 4.25-5.7 6.4-5.91 10.8-.52 4.01-3.55 6.98-6.53 9.4-1.21 7.41-2.13 15.64 1.69 22.47.98 1.99 3.2 2.8 4.74 4.27 2.62 4.5 2.42 11.25-1.93 14.63-.26.34-.78 1-1.04 1.33-5.75 1.85-9.53-3.83-11.83-8.17-2.32-3.12.04-7.17-1.63-10.51-1.45-3.1-4.07-5.71-4.44-9.27-.3-4.04-.19-8.11-.69-12.14-.59-3.15 1-6.08 1.78-9.03-3.66 1.47-6.7 4.5-10.65 5.19-2.57-.04-5.87.46-7.51-2.01-2.97-4-6.07-8.42-6.25-13.58-2.55 3.88-7.78 2.2-10.99 5.19-4.34 2.42-6.17 7.08-8.28 11.28.28 3.64.87 7.55-1.21 10.81-1.52 2.34-1.45 5.04-.77 7.66 6.95 1.83 14.05 5.26 21.37 3.33 1.97-.59 1.66-3.14 1.97-4.73.19-5.92 2.69-12.04 7.48-15.69-1.22 5.11-6.4 8.89-5.52 14.56-.95 8.91 2.87 17.84 8.88 24.31 7.01 6.11 16.84 4.59 25.39 5.14 5.79.71 11.37-1.29 17.06-1.97 4.45-.8 8.51-3.01 12.5-5.04 6.27-5.2 7.49-13.8 8.38-21.42.67-9.74-3.62-18.94-9.43-26.49-2.05-1.78-4.71-2.6-7.02-3.97-3.27-1.92-7.23-1.59-10.78-2.57 2.31-1.78 5.29-1.21 7.91-.55 4.23.78 7.75 3.41 11.35 5.61 6.96 7.91 11.27 18.36 10.78 28.99-.88 7.55-3.48 15.11-8.68 20.78-5.05 3.69-10.82 6.66-17.1 7.4-10.46 2.97-21.7 2.21-32.22-.06-11.01-2.31-18.75-12.97-19.39-23.91-1.05 1.18-3.52 1.75-2.92 3.75.74 4.84-3.07 8.43-4.77 12.59-1.74 3.24-2.57 7.98-6.48 9.26-10.41-.31-20.9 1.46-31.24-.33-4.04-.23-8.05-.72-12.04-1.39-6.4.5-12.74 1.77-19.09 2.76-3.13.59-6.25-.47-9.14-1.58-.13-1.29-.09-2.58-.07-3.86 2.14-1.47 4.27-2.96 6.54-4.21 2.98-1.44 4.06-4.81 6.02-7.24 1.99-2.96 5.3-4.66 7.35-7.55 1.8-2.67 5.11-4.82 8.41-3.77 3.32 1.29 5.2 4.61 8.1 6.55 4.39-.66 8.46-2.75 12.92-3.08 4.2-.41 8.39.44 12.37 1.74.05-1.6.12-3.19.19-4.79-2.69-1.46-1.92-4.62-2.03-7.13 1.03-2.67 3.38-4.93 3.13-7.99.43-6.29 1.27-13.67 6.73-17.74 2.65-2.44 6.16-4.15 9.85-3.73 7.55-3.97 12.51-11.66 20.73-14.54 4.27-1.39 7.69-4.33 11.38-6.75 4.53-.93 9.23-1.29 13.85-.86 2.3.1 4.55-.7 6.65-1.58 2.88-2.17 3.42-6.44 6.62-8.32m2.49-.04c-2.44 1.14-3.35 3.91-4.61 6.1-2.38 3.99-7.34 5.6-11.75 5.62-4.32-.95-8.7.24-12.9 1.21-4.32 2.02-7.99 5.22-12.47 6.95-5.11 2.05-8.72 6.32-13.35 9.13-.08 1.5-.24 3-.14 4.49.21 3.02 2.79 5 3.98 7.61 1.64 2.7 4.38 4.14 7.17 5.36 3.26-2.59 6.82-4.73 10.48-6.67 1.63-2.7 2.19-6.01 3.57-8.89-2.56-.2-5.31-2.05-7.72-.4-2.77 1.32-5.39 2.93-8.21 4.15 2.64-2.61 5.89-4.5 9.26-6.02 2.86-.92 5.93-.4 8.85-.12 1.42-2.68 2.3-5.72 4.57-7.85.21 5.29-3.85 9.1-5.7 13.7-1.92 4.1-2.96 8.52-4.53 12.75-.65 1.81.48 3.6.65 5.4.56 4.18.24 8.53 1.7 12.56.77 2.52 2.86 4.27 4.03 6.57 1.45 3.3.39 7.12 1.85 10.43.78 1.72 1.69 3.38 2.49 5.1 2.28 1.53 4.75 2.75 7.57 2.09.93-3.08 1.42-6.25 2.05-9.39-.59-1.37-1.15-2.75-1.68-4.14-1.77-1.58-4.35-2.67-4.83-5.25-1.13-4.48-2.54-9.03-2.52-13.69.57-3.93 1.11-7.87.9-11.86l1.05-1.21.68 2.92c1.32-1.63 2.86-3.16 3.6-5.16.86-2.28.72-4.93 2.2-6.97 1.62-2.39 4.14-4.23 5-7.09.48-2.33.42-4.73.47-7.09 4.6.93 8.49 3.6 12.79 5.33 5.3-1.51 6.51-7.51 10.33-10.79.09-2.27.29-4.56.02-6.83-.14-3.18-3.1-5.04-5.38-6.78-2.66-2.14-6.32-1.78-9.47-1.27m-77.88 68.03c.06 3.43.46 6.87.1 10.3-.45.48-1.36 1.46-1.82 1.95.41.65 1.23 1.94 1.64 2.59-5.01-.3-9.9-2.34-14.96-1.61-5.54 1.03-11.18 3.22-16.86 1.9-3.03-3.51-6.45-7.46-11.21-8.38-3.44 2.43-5.91 5.93-8.32 9.31-3.22 3.58-7.08 6.5-10.82 9.49 7.23 1.43 14.26-1.46 21.47-1.33 4.93-.1 9.8.31 14.7.88 5.11-.33 10.03 2.26 15.13 1.06 6.45-1.57 13.11-.54 19.65-.78 1.37-1.13 2.2-2.75 2.92-4.34 2.11-5.68 6.29-10.62 6.19-16.98-6.26.38-12.09-1.87-17.81-4.06m-42.39 4.72c4.47 1.95 8.13 5.32 11.14 9.08 4.53-.42 9.12-.91 13.44-2.41 4.99-1.32 10.22-.26 15.12.97.69-1.67 1.37-3.35 2-5.04-4.82-.58-9.6-2.63-14.49-1.35-4.75 1.21-9.5 2.6-14.44 2.72-1.94-2.65-3.76-6.03-7.29-6.7-1.92.71-3.69 1.75-5.48 2.73z"/>
    <path d="M144.91 60.77c3.13-.77 6.81.03 7.44 3.72-2.59-1.01-5.04-2.34-7.44-3.72zM86.92 118.53c2.01 3.74-.07 7.79-3.29 10.03 1.47-3.22 3.09-6.42 3.29-10.03z"/>
  </g>
</svg>

<?xml version="1.0" encoding="UTF-8" ?>
<!DOCTYPE svg PUBLIC "-//W3C//DTD SVG 1.1//EN" "http://www.w3.org/Graphics/SVG/1.1/DTD/svg11.dtd">
<svg width="233pt" height="175pt" viewBox="0 0 233 175" version="1.1" xmlns="http://www.w3.org/2000/svg">
<g id="#ffffffff">
<path fill="#FFFFFF" opacity="1.00" d=" M 0.00 0.00 L 233.00 0.00 L 233.00 175.00 L 0.00 175.00 L 0.00 0.00 M 160.41 41.47 C 157.21 43.35 156.67 47.62 153.79 49.79 C 151.69 50.67 149.44 51.47 147.14 51.37 C 142.52 50.94 137.82 51.30 133.29 52.23 C 129.60 54.65 126.18 57.59 121.91 58.98 C 113.69 61.86 108.73 69.55 101.18 73.52 C 97.49 73.10 93.98 74.81 91.33 77.25 C 85.87 81.32 85.03 88.70 84.60 94.99 C 84.85 98.05 82.50 100.31 81.47 102.98 C 81.58 105.49 80.81 108.65 83.50 110.11 C 83.43 111.71 83.36 113.30 83.31 114.90 C 79.33 113.60 75.14 112.75 70.94 113.16 C 66.48 113.49 62.41 115.58 58.02 116.24 C 55.12 114.30 53.24 110.98 49.92 109.69 C 46.62 108.64 43.31 110.79 41.51 113.46 C 39.46 116.35 36.15 118.05 34.16 121.01 C 32.20 123.44 31.12 126.81 28.14 128.25 C 25.87 129.50 23.74 130.99 21.60 132.46 C 21.58 133.74 21.54 135.03 21.67 136.32 C 24.56 137.43 27.68 138.49 30.81 137.90 C 37.16 136.91 43.50 135.64 49.90 135.14 C 53.89 135.81 57.90 136.30 61.94 136.53 C 72.28 138.32 82.77 136.55 93.18 136.86 C 97.09 135.58 97.92 130.84 99.66 127.60 C 101.36 123.44 105.17 119.85 104.43 115.01 C 103.83 113.01 106.30 112.44 107.35 111.26 C 107.99 122.20 115.73 132.86 126.74 135.17 C 137.26 137.44 148.50 138.20 158.96 135.23 C 165.24 134.49 171.01 131.52 176.06 127.83 C 181.26 122.16 183.86 114.60 184.74 107.05 C 185.23 96.42 180.92 85.97 173.96 78.06 C 170.36 75.86 166.84 73.23 162.61 72.45 C 159.99 71.79 157.01 71.22 154.70 73.00 C 158.25 73.98 162.21 73.65 165.48 75.57 C 167.79 76.94 170.45 77.76 172.50 79.54 C 178.31 87.09 182.60 96.29 181.93 106.03 C 181.04 113.65 179.82 122.25 173.55 127.45 C 169.56 129.48 165.50 131.69 161.05 132.49 C 155.36 133.17 149.78 135.17 143.99 134.46 C 135.44 133.91 125.61 135.43 118.60 129.32 C 112.59 122.85 108.77 113.92 109.72 105.01 C 108.84 99.34 114.02 95.56 115.24 90.45 C 110.45 94.10 107.95 100.22 107.76 106.14 C 107.45 107.73 107.76 110.28 105.79 110.87 C 98.47 112.80 91.37 109.37 84.42 107.54 C 83.74 104.92 83.67 102.22 85.19 99.88 C 87.27 96.62 86.68 92.71 86.40 89.07 C 88.51 84.87 90.34 80.21 94.68 77.79 C 97.89 74.80 103.12 76.48 105.67 72.60 C 105.85 77.76 108.95 82.18 111.92 86.18 C 113.56 88.65 116.86 88.15 119.43 88.19 C 123.38 87.50 126.42 84.47 130.08 83.00 C 129.30 85.95 127.71 88.88 128.30 92.03 C 128.80 96.06 128.69 100.13 128.99 104.17 C 129.36 107.73 131.98 110.34 133.43 113.44 C 135.10 116.78 132.74 120.83 135.06 123.95 C 137.36 128.29 141.14 133.97 146.89 132.12 C 147.15 131.79 147.67 131.13 147.93 130.79 C 152.28 127.41 152.48 120.66 149.86 116.16 C 148.32 114.69 146.10 113.88 145.12 111.89 C 141.30 105.06 142.22 96.83 143.43 89.42 C 146.41 87.00 149.44 84.03 149.96 80.02 C 150.17 75.62 155.20 73.47 155.87 69.22 C 155.76 67.43 155.69 65.65 155.85 63.87 C 157.14 64.12 158.43 64.38 159.72 64.66 C 162.40 67.30 166.13 69.25 169.94 67.95 C 175.87 63.92 178.98 56.78 179.79 49.86 C 180.14 44.58 174.93 42.08 171.08 39.86 C 167.63 37.87 163.50 39.57 160.41 41.47 Z" />
<path fill="#FFFFFF" opacity="1.00" d=" M 162.90 41.43 C 166.05 40.92 169.71 40.56 172.37 42.70 C 174.65 44.44 177.61 46.30 177.75 49.48 C 178.02 51.75 177.82 54.04 177.73 56.31 C 173.91 59.59 172.70 65.59 167.40 67.10 C 163.10 65.37 159.21 62.70 154.61 61.77 C 154.56 64.13 154.62 66.53 154.14 68.86 C 153.28 71.72 150.76 73.56 149.14 75.95 C 147.66 77.99 147.80 80.64 146.94 82.92 C 146.20 84.92 144.66 86.45 143.34 88.08 C 143.17 87.35 142.83 85.89 142.66 85.16 C 142.40 85.46 141.87 86.07 141.61 86.37 C 141.82 90.36 141.28 94.30 140.71 98.23 C 140.69 102.89 142.10 107.44 143.23 111.92 C 143.71 114.50 146.29 115.59 148.06 117.17 C 148.59 118.56 149.15 119.94 149.74 121.31 C 149.11 124.45 148.62 127.62 147.69 130.70 C 144.87 131.36 142.40 130.14 140.12 128.61 C 139.32 126.89 138.41 125.23 137.63 123.51 C 136.17 120.20 137.23 116.38 135.78 113.08 C 134.61 110.78 132.52 109.03 131.75 106.51 C 130.29 102.48 130.61 98.13 130.05 93.95 C 129.88 92.15 128.75 90.36 129.40 88.55 C 130.97 84.32 132.01 79.90 133.93 75.80 C 135.78 71.20 139.84 67.39 139.63 62.10 C 137.36 64.23 136.48 67.27 135.06 69.95 C 132.14 69.67 129.07 69.15 126.21 70.07 C 122.84 71.59 119.59 73.48 116.95 76.09 C 119.77 74.87 122.39 73.26 125.16 71.94 C 127.57 70.29 130.32 72.14 132.88 72.34 C 131.50 75.22 130.94 78.53 129.31 81.23 C 125.65 83.17 122.09 85.31 118.83 87.90 C 116.04 86.68 113.30 85.24 111.66 82.54 C 110.47 79.93 107.89 77.95 107.68 74.93 C 107.58 73.44 107.74 71.94 107.82 70.44 C 112.45 67.63 116.06 63.36 121.17 61.31 C 125.65 59.58 129.32 56.38 133.64 54.36 C 137.84 53.39 142.22 52.20 146.54 53.15 C 150.95 53.13 155.91 51.52 158.29 47.53 C 159.55 45.34 160.46 42.57 162.90 41.43 M 144.91 60.77 C 147.31 62.15 149.76 63.48 152.35 64.49 C 151.72 60.80 148.04 60.00 144.91 60.77 Z" />
<path fill="#FFFFFF" opacity="1.00" d=" M 85.02 109.46 C 90.74 111.65 96.57 113.90 102.83 113.52 C 102.93 119.88 98.75 124.82 96.64 130.50 C 95.92 132.09 95.09 133.71 93.72 134.84 C 87.18 135.08 80.52 134.05 74.07 135.62 C 68.97 136.82 64.05 134.23 58.94 134.56 C 54.04 133.99 49.17 133.58 44.24 133.68 C 37.03 133.55 30.00 136.44 22.77 135.01 C 26.51 132.02 30.37 129.10 33.59 125.52 C 36.00 122.14 38.47 118.64 41.91 116.21 C 46.67 117.13 50.09 121.08 53.12 124.59 C 58.80 125.91 64.44 123.72 69.98 122.69 C 75.04 121.96 79.93 124.00 84.94 124.30 C 84.53 123.65 83.71 122.36 83.30 121.71 C 83.76 121.22 84.67 120.24 85.12 119.76 C 85.48 116.33 85.08 112.89 85.02 109.46 M 86.92 118.53 C 86.72 122.14 85.10 125.34 83.63 128.56 C 86.85 126.32 88.93 122.27 86.92 118.53 Z" />
<path fill="#FFFFFF" opacity="1.00" d=" M 42.63 114.18 C 44.42 113.20 46.19 112.16 48.11 111.45 C 51.64 112.12 53.46 115.50 55.40 118.15 C 60.34 118.03 65.09 116.64 69.84 115.43 C 74.73 114.15 79.51 116.20 84.33 116.78 C 83.70 118.47 83.02 120.15 82.33 121.82 C 77.43 120.59 72.20 119.53 67.21 120.85 C 62.89 122.35 58.30 122.84 53.77 123.26 C 50.76 119.50 47.10 116.13 42.63 114.18 Z" />
</g>
<g id="#393b37ff">
<path fill="#333333" opacity="1.00" d=" M 160.41 41.47 C 163.50 39.57 167.63 37.87 171.08 39.86 C 174.93 42.08 180.14 44.58 179.79 49.86 C 178.98 56.78 175.87 63.92 169.94 67.95 C 166.13 69.25 162.40 67.30 159.72 64.66 C 158.43 64.38 157.14 64.12 155.85 63.87 C 155.69 65.65 155.76 67.43 155.87 69.22 C 155.20 73.47 150.17 75.62 149.96 80.02 C 149.44 84.03 146.41 87.00 143.43 89.42 C 142.22 96.83 141.30 105.06 145.12 111.89 C 146.10 113.88 148.32 114.69 149.86 116.16 C 152.48 120.66 152.28 127.41 147.93 130.79 C 147.67 131.13 147.15 131.79 146.89 132.12 C 141.14 133.97 137.36 128.29 135.06 123.95 C 132.74 120.83 135.10 116.78 133.43 113.44 C 131.98 110.34 129.36 107.73 128.99 104.17 C 128.69 100.13 128.80 96.06 128.30 92.03 C 127.71 88.88 129.30 85.95 130.08 83.00 C 126.42 84.47 123.38 87.50 119.43 88.19 C 116.86 88.15 113.56 88.65 111.92 86.18 C 108.95 82.18 105.85 77.76 105.67 72.60 C 103.12 76.48 97.89 74.80 94.68 77.79 C 90.34 80.21 88.51 84.87 86.40 89.07 C 86.68 92.71 87.27 96.62 85.19 99.88 C 83.67 102.22 83.74 104.92 84.42 107.54 C 91.37 109.37 98.47 112.80 105.79 110.87 C 107.76 110.28 107.45 107.73 107.76 106.14 C 107.95 100.22 110.45 94.10 115.24 90.45 C 114.02 95.56 108.84 99.34 109.72 105.01 C 108.77 113.92 112.59 122.85 118.60 129.32 C 125.61 135.43 135.44 133.91 143.99 134.46 C 149.78 135.17 155.36 133.17 161.05 132.49 C 165.50 131.69 169.56 129.48 173.55 127.45 C 179.82 122.25 181.04 113.65 181.93 106.03 C 182.60 96.29 178.31 87.09 172.50 79.54 C 170.45 77.76 167.79 76.94 165.48 75.57 C 162.21 73.65 158.25 73.98 154.70 73.00 C 157.01 71.22 159.99 71.79 162.61 72.45 C 166.84 73.23 170.36 75.86 173.96 78.06 C 180.92 85.97 185.23 96.42 184.74 107.05 C 183.86 114.60 181.26 122.16 176.06 127.83 C 171.01 131.52 165.24 134.49 158.96 135.23 C 148.50 138.20 137.26 137.44 126.74 135.17 C 115.73 132.86 107.99 122.20 107.35 111.26 C 106.30 112.44 103.83 113.01 104.43 115.01 C 105.17 119.85 101.36 123.44 99.66 127.60 C 97.92 130.84 97.09 135.58 93.18 136.86 C 82.77 136.55 72.28 138.32 61.94 136.53 C 57.90 136.30 53.89 135.81 49.90 135.14 C 43.50 135.64 37.16 136.91 30.81 137.90 C 27.68 138.49 24.56 137.43 21.67 136.32 C 21.54 135.03 21.58 133.74 21.60 132.46 C 23.74 130.99 25.87 129.50 28.14 128.25 C 31.12 126.81 32.20 123.44 34.16 121.01 C 36.15 118.05 39.46 116.35 41.51 113.46 C 43.31 110.79 46.62 108.64 49.92 109.69 C 53.24 110.98 55.12 114.30 58.02 116.24 C 62.41 115.58 66.48 113.49 70.94 113.16 C 75.14 112.75 79.33 113.60 83.31 114.90 C 83.36 113.30 83.43 111.71 83.50 110.11 C 80.81 108.65 81.58 105.49 81.47 102.98 C 82.50 100.31 84.85 98.05 84.60 94.99 C 85.03 88.70 85.87 81.32 91.33 77.25 C 93.98 74.81 97.49 73.10 101.18 73.52 C 108.73 69.55 113.69 61.86 121.91 58.98 C 126.18 57.59 129.60 54.65 133.29 52.23 C 137.82 51.30 142.52 50.94 147.14 51.37 C 149.44 51.47 151.69 50.67 153.79 49.79 C 156.67 47.62 157.21 43.35 160.41 41.47 M 162.90 41.43 C 160.46 42.57 159.55 45.34 158.29 47.53 C 155.91 51.52 150.95 53.13 146.54 53.15 C 142.22 52.20 137.84 53.39 133.64 54.36 C 129.32 56.38 125.65 59.58 121.17 61.31 C 116.06 63.36 112.45 67.63 107.82 70.44 C 107.74 71.94 107.58 73.44 107.68 74.93 C 107.89 77.95 110.47 79.93 111.66 82.54 C 113.30 85.24 116.04 86.68 118.83 87.90 C 122.09 85.31 125.65 83.17 129.31 81.23 C 130.94 78.53 131.50 75.22 132.88 72.34 C 130.32 72.14 127.57 70.29 125.16 71.94 C 122.39 73.26 119.77 74.87 116.95 76.09 C 119.59 73.48 122.84 71.59 126.21 70.07 C 129.07 69.15 132.14 69.67 135.06 69.95 C 136.48 67.27 137.36 64.23 139.63 62.10 C 139.84 67.39 135.78 71.20 133.93 75.80 C 132.01 79.90 130.97 84.32 129.40 88.55 C 128.75 90.36 129.88 92.15 130.05 93.95 C 130.61 98.13 130.29 102.48 131.75 106.51 C 132.52 109.03 134.61 110.78 135.78 113.08 C 137.23 116.38 136.17 120.20 137.63 123.51 C 138.41 125.23 139.32 126.89 140.12 128.61 C 142.40 130.14 144.87 131.36 147.69 130.70 C 148.62 127.62 149.11 124.45 149.74 121.31 C 149.15 119.94 148.59 118.56 148.06 117.17 C 146.29 115.59 143.71 114.50 143.23 111.92 C 142.10 107.44 140.69 102.89 140.71 98.23 C 141.28 94.30 141.82 90.36 141.61 86.37 C 141.87 86.07 142.40 85.46 142.66 85.16 C 142.83 85.89 143.17 87.35 143.34 88.08 C 144.66 86.45 146.20 84.92 146.94 82.92 C 147.80 80.64 147.66 77.99 149.14 75.95 C 150.76 73.56 153.28 71.72 154.14 68.86 C 154.62 66.53 154.56 64.13 154.61 61.77 C 159.21 62.70 163.10 65.37 167.40 67.10 C 172.70 65.59 173.91 59.59 177.73 56.31 C 177.82 54.04 178.02 51.75 177.75 49.48 C 177.61 46.30 174.65 44.44 172.37 42.70 C 169.71 40.56 166.05 40.92 162.90 41.43 M 85.02 109.46 C 85.08 112.89 85.48 116.33 85.12 119.76 C 84.67 120.24 83.76 121.22 83.30 121.71 C 83.71 122.36 84.53 123.65 84.94 124.30 C 79.93 124.00 75.04 121.96 69.98 122.69 C 64.44 123.72 58.80 125.91 53.12 124.59 C 50.09 121.08 46.67 117.13 41.91 116.21 C 38.47 118.64 36.00 122.14 33.59 125.52 C 30.37 129.10 26.51 132.02 22.77 135.01 C 30.00 136.44 37.03 133.55 44.24 133.68 C 49.17 133.58 54.04 133.99 58.94 134.56 C 64.05 134.23 68.97 136.82 74.07 135.62 C 80.52 134.05 87.18 135.08 93.72 134.84 C 95.09 133.71 95.92 132.09 96.64 130.50 C 98.75 124.82 102.93 119.88 102.83 113.52 C 96.57 113.90 90.74 111.65 85.02 109.46 M 42.63 114.18 C 47.10 116.13 50.76 119.50 53.77 123.26 C 58.30 122.84 62.89 122.35 67.21 120.85 C 72.20 119.53 77.43 120.59 82.33 121.82 C 83.02 120.15 83.70 118.47 84.33 116.78 C 79.51 116.20 74.73 114.15 69.84 115.43 C 65.09 116.64 60.34 118.03 55.40 118.15 C 53.46 115.50 51.64 112.12 48.11 111.45 C 46.19 112.16 44.42 113.20 42.63 114.18 Z" />
<path fill="#333333" opacity="1.00" d=" M 144.91 60.77 C 148.04 60.00 151.72 60.80 152.35 64.49 C 149.76 63.48 147.31 62.15 144.91 60.77 Z" />
<path fill="#333333" opacity="1.00" d=" M 86.92 118.53 C 88.93 122.27 86.85 126.32 83.63 128.56 C 85.10 125.34 86.72 122.14 86.92 118.53 Z" />
</g>
</svg>
